assets/img/icons/duotone-icons/Cooking/Kitchen-scale.svg

<?xml version="1.0" encoding="UTF-8"?>
<svg width="24px" height="24px" viewBox="0 0 24 24" version="1.1" xmlns="http://www.w3.org/2000/svg" xmlns:xlink="http://www.w3.org/1999/xlink">
    <!-- Generator: Sketch 52.2 (67145) - http://www.bohemiancoding.com/sketch -->
    <title>Stockholm-icons / Cooking / Kitchen-scale</title>
    <desc>Created with Sketch.</desc>
    <g id="Stockholm-icons-/-Cooking-/-Kitchen-scale" stroke="none" stroke-width="1" fill="none" fill-rule="evenodd">
        <rect id="bound" x="0" y="0" width="24" height="24"></rect>
        <path d="M5,8 L19,8 C20.1045695,8 21,8.8954305 21,10 L21,20 C21,21.1045695 20.1045695,22 19,22 L5,22 C3.8954305,22 3,21.1045695 3,20 L3,10 C3,8.8954305 3.8954305,8 5,8 Z M12,20 C14.7614237,20 17,17.7614237 17,15 C17,12.2385763 14.7614237,10 12,10 C9.23857625,10 7,12.2385763 7,15 C7,17.7614237 9.23857625,20 12,20 Z M11.5730613,13.5616319 L12,11 L12.4269387,13.5616319 C13.0473823,13.7455122 13.5,14.3198988 13.5,15 C13.5,15.8284271 12.8284271,16.5 12,16.5 C11.1715729,16.5 10.5,15.8284271 10.5,15 C10.5,14.3198988 10.9526177,13.7455122 11.5730613,13.5616319 Z" id="Combined-Shape" fill="#335EEA"></path>
        <path d="M14,6 L14,8 L10,8 L10,6 L7.80277564,6 C6.67650121,6 5.62474465,5.43711697 5,4.5 L4.5182334,3.7773501 C4.36505717,3.54758575 4.4271441,3.23715108 4.65690845,3.08397485 C4.73904221,3.02921901 4.83554605,3 4.93425855,3 L19.0657415,3 C19.3418838,3 19.5657415,3.22385763 19.5657415,3.5 C19.5657415,3.59871249 19.5365224,3.69521634 19.4817666,3.7773501 L19,4.5 C18.3752554,5.43711697 17.3234988,6 16.1972244,6 L14,6 Z" id="Combined-Shape" fill="#335EEA" opacity="0.3"></path>
    </g>
</svg>

<svg width="24" height="24" viewBox="0 0 24 24" xmlns="http://www.w3.org/2000/svg"><g fill="none" fill-rule="evenodd"><path d="M0 0h24v24H0z"/><path d="M5 8h14a2 2 0 012 2v10a2 2 0 01-2 2H5a2 2 0 01-2-2V10a2 2 0 012-2zm7 12a5 5 0 100-10 5 5 0 000 10zm-.427-6.438L12 11l.427 2.562a1.5 1.5 0 11-.854 0z" fill="#335EEA"/><path d="M14 6v2h-4V6H7.803A3.369 3.369 0 015 4.5l-.482-.723A.5.5 0 014.934 3h14.132a.5.5 0 01.416.777L19 4.5A3.369 3.369 0 0116.197 6H14z" fill="#335EEA" opacity=".3"/></g></svg>
